!! 00000] TT[WS
!!!OTL: Fangniu diao
!!!ARE: Asia, China,ÿShanxi qixian
!! Ethnic Group: Han
!! WI, 65 (2)
!!!SCT: J0076
!!!YEM: Copyright 1995, estate of Helmut Schaffrath.
**kern
*ICvox
*Ivox
*M2/4
*k[b-]
*F:
{8cc
16cc
16ff
8cc
8cc
=1
16b-
16cc
16b-
16g
4f
=2
8g
16cc
16cc
8f
8g
=3
8b-
16b-
16d
4c}
=4
{8f
16f
16f
8e
8f
=5
8e
16d
16c
4b-}
=6
{8cc
16cc
16cc
8.f
16g
=7
8.b-
16cc
8g
16f
16d
=8
8.c
16b-
8g
16f
16d
=9
2c}
==
!!!AGN: Xiaodiao. Laodong, Fangniu
!!!ONB: ESAC (Essen Associative Code) Database: CHINA
!!!AMT: simple duple
!!!AIN: vox
!!!EED: Helmut Schaffrath
!!!EEV: 1.0
*-
